src/images/jabato-logo.svg

<svg fill="none" height="22" viewBox="0 0 73 22" width="73" xmlns="http://www.w3.org/2000/svg"><g fill="#dd2833"><path d="m2.80621.00170898v14.52309102c0 1.8318-.76493 2.0932-1.65793 2.0932h-1.14828v4.3176s1.0202.2624 2.55182.2624c4.46326 0 5.35627-1.7016 5.35627-7.196v-13.99933399h-5.10188z"/><path d="m21.2409 7.32716c-.9956-6.80338-1.25-7.32716-1.25-7.32716h-7.244s-.2544.52378-1.25 7.32716l-1.96412 13.60674h5.05012l.2658-2.7127-1.0123-.6952h5.0659l-1.0123.6933.264 2.7137h5.0519zm-5.9185 5.75674.7912-8.11136h.5106l.7649 8.11136z"/><path d="m34.3166 10.4602-1.8167-.3735 1.8851-.43086c.6018-.46728 1.429-1.56559 1.429-4.06575 0-3.1398-1.2755-5.4953634-5.4835-5.4953634h-5.994v20.9338734h6.3756c4.0817 0 5.3563-1.8318 5.3563-5.4953v-1.1003c0-2.592-1.0719-3.5965-1.7518-3.9728zm-4.2422-6.17907c.5105 0 .7658.33992.7658.78423v1.83178c0 1.0466-.1281 1.44016-1.0202 1.44016h-.3833v-2.93297l-1.3676-1.1232zm.8939 11.90617c0 .4443-.2562.7842-.7658.7842h-.765v-3.7153l-1.3675-1.1232h1.3675v-.0029h.5106c.893 0 1.0202.2615 1.0202 1.4392z"/><path d="m48.3389 7.32716c-.9957-6.80338-1.25-7.32716-1.25-7.32716h-7.2441s-.2561.52378-1.25 7.32716l-1.9641 13.60774h5.0501l.2667-2.7396-.9746-.6693h5.0668l-1.0491.7191.2614 2.6888h5.0501zm-5.9177 5.75774.7913-8.11236h.5105l.7649 8.11236z"/><path d="m60.6277.00097656h-11.7327v4.70921344h5.0273l-1.7124.87808v15.34563h5.1019v-15.34946l-.0061.00861-1.7211-.88286h5.0422v-4.70921344z"/><path d="m67.1331.00097656c-4.2088 0-5.8668 2.48579344-5.8668 6.54196344v8.63516c0 4.0552 1.658 6.542 5.8668 6.542 4.2089 0 5.8668-2.4868 5.8668-6.542v-8.63516c0-4.05617-1.6588-6.54196344-5.8668-6.54196344zm.765 16.35492344c0 .5238-.1781 1.0456-.765 1.0456-.5868 0-.7649-.5218-.7649-1.0456v-10.98978c0-.0383.0009-.07756.0035-.11587l-1.1333-.93169h1.8614v.00096c.0105-.00096.0228-.00096.0333-.00096.5869 0 .765.52378.765 1.0466z"/></g></svg>

<svg width="73" height="22" viewBox="0 0 73 22" fill="none" xmlns="http://www.w3.org/2000/svg">
<path d="M2.80621 0.00170898V14.5248C2.80621 16.3566 2.04128 16.618 1.14828 16.618H0V20.9356C0 20.9356 1.0202 21.198 2.55182 21.198C7.01508 21.198 7.90809 19.4964 7.90809 14.002V0.00266601H2.80621V0.00170898Z" fill="#DD2833"/>
<path d="M21.2409 7.32716C20.2453 0.52378 19.9909 0 19.9909 0H12.7469C12.7469 0 12.4925 0.52378 11.4969 7.32716L9.53278 20.9339H14.5829L14.8487 18.2212L13.8364 17.526H18.9023L17.89 18.2193L18.154 20.933H23.2059L21.2409 7.32716ZM15.3224 13.0839L16.1136 4.97254H16.6242L17.3891 13.0839H15.3224Z" fill="#DD2833"/>
<path d="M34.3166 10.4602L32.4999 10.0867L34.385 9.65584C34.9868 9.18856 35.814 8.09025 35.814 5.59009C35.814 2.45029 34.5385 0.0947266 30.3305 0.0947266H24.3365V21.0286H30.7121C34.7938 21.0286 36.0684 19.1968 36.0684 15.5333V14.433C36.0684 11.841 34.9965 10.8365 34.3166 10.4602ZM30.0744 4.28113C30.5849 4.28113 30.8402 4.62105 30.8402 5.06536V6.89714C30.8402 7.94374 30.7121 8.3373 29.82 8.3373H29.4367V5.40433L28.0691 4.28113H30.0744ZM30.9683 16.1873C30.9683 16.6316 30.7121 16.9715 30.2025 16.9715H29.4375V13.2562L28.07 12.133H29.4375V12.1301H29.9481C30.8411 12.1301 30.9683 12.3916 30.9683 13.5693V16.1873Z" fill="#DD2833"/>
<path d="M48.3389 7.32716C47.3432 0.52378 47.0889 0 47.0889 0H39.8448C39.8448 0 39.5887 0.52378 38.5948 7.32716L36.6307 20.9349H41.6808L41.9475 18.1953L40.9729 17.526H46.0397L44.9906 18.2451L45.252 20.9339H50.3021L48.3389 7.32716ZM42.4212 13.0849L43.2125 4.97254H43.723L44.4879 13.0849H42.4212Z" fill="#DD2833"/>
<path d="M60.6277 0.000976562H48.895V4.71019H53.9223L52.2099 5.58827V20.9339H57.3118V5.58444L57.3057 5.59305L55.5846 4.71019H60.6268V0.000976562H60.6277Z" fill="#DD2833"/>
<path d="M67.1331 0.000976562C62.9243 0.000976562 61.2663 2.48677 61.2663 6.54294V15.1781C61.2663 19.2333 62.9243 21.7201 67.1331 21.7201C71.342 21.7201 72.9999 19.2333 72.9999 15.1781V6.54294C72.9999 2.48677 71.3411 0.000976562 67.1331 0.000976562ZM67.8981 16.3559C67.8981 16.8797 67.72 17.4015 67.1331 17.4015C66.5463 17.4015 66.3682 16.8797 66.3682 16.3559V5.36612C66.3682 5.32782 66.3691 5.28856 66.3717 5.25025L65.2384 4.31856H67.0998V4.31952C67.1103 4.31856 67.1226 4.31856 67.1331 4.31856C67.72 4.31856 67.8981 4.84234 67.8981 5.36516V16.3559Z" fill="#DD2833"/>
</svg>
